X:8
T: GEGRUESST DU LAND DER TREUE
N: B0006
O: Europa, Mitteleuropa, Deutschland
R: politisch, national, Vaterlands - Lied
M: 4/4
L: 1/16
K: G
D4 | B6B2B4A4 | A6G2G4
D4 | c6c2B3AB3c | A8z4
d4 | d6B2c4c4 | c6A2B4
G4 | F4G4B2A2G2F2 | G8z4

@@@ Tune index: 1811
